X:1
T:Mrs. Elders Welcome
R:walzer
Z:abc transcription Simon Wascher
M:3/4
L:1/4
K:G
D |\
B2A | G2F | EFG | D2D |\
B2A | G2F | EFG | A2D |
B2A | G2F | E>FG | DGF |\
EAG | FBA | GF/G/B/A/ | G2 :|
|: D |\
B/B/BD | B/B/BD | BdB | G2D |\
A/A/AD | A/A/AD | AGA | BGD |
B2A | G2F | EFG | D2D |\
EAG | FBA | GF/G/ B/A/ | G2 :|
%%wordsfont Times-Italic 11pt
W:aus Simon Waschers TradArchiv
